public/avatar/hat/68.svg

<svg xmlns:xlink="http://www.w3.org/1999/xlink" height="92.9" width="100.7" xmlns="http://www.w3.org/2000/svg"><g transform="translate(38.65 49.75)"><use height="18.15" transform="translate(-9.85 -4.45)" width="28.95" xlink:href="#a"/><use height="39.6" transform="matrix(.5 0 0 .5 -5.15 -4.2)" width="32.7" xlink:href="#text0"/></g><defs><g id="a"><path d="M-9.35 5.05Q-7.9.2-4.05-2.5q3.8-2.7 7.6-.35Q7.3-.55 8.3 4.4 6 6.7.8 6.9q-5.2.15-10.15-1.85" fill="#fff" fill-rule="evenodd" transform="translate(9.85 4.45)"/><path d="M8.3 4.4q4.35 2.15 8.2 1.6 3.75-.55.85 2.9-2 2.3-4.4 3.4l-2.5.8q-.75-.2-1.2 0l-2.45-.6Q4.75 12 3.75 9.9q-1.05-2.1-4-1.65-3 .4-7.75-2l-.8-.65-.55-.55Q-4.4 7.05.8 6.9 6 6.7 8.3 4.4" fill="#900" fill-rule="evenodd" transform="translate(9.85 4.45)"/><path d="m9.25 13.1.05.1-1.05-.05q-4.95-.3-9.6-2.55Q-4.95 8.85-8 6.25q4.75 2.4 7.75 2 2.95-.45 4 1.65 1 2.1 3.05 2.6l2.45.6" fill="red" fill-rule="evenodd" transform="translate(9.85 4.45)"/><path d="M8.3 4.4q4.35 2.15 8.2 1.6 3.75-.55.85 2.9-2 2.3-4.4 3.4l-2.5.8q-.75-.2-1.2 0l-2.45-.6Q4.75 12 3.75 9.9q-1.05-2.1-4-1.65-3 .4-7.75-2l-.8-.65-.55-.55Q-7.9.2-4.05-2.5q3.8-2.7 7.6-.35Q7.3-.55 8.3 4.4m1 8.8-1.05-.05q-4.95-.3-9.6-2.55Q-4.95 8.85-8 6.25" fill="none" stroke="#650101" stroke-linecap="round" stroke-linejoin="round" transform="translate(9.85 4.45)"/></g></defs></svg>

<?xml version="1.0" encoding="UTF-8" standalone="no"?>
<svg xmlns:xlink="http://www.w3.org/1999/xlink" height="92.9px" width="100.7px" xmlns="http://www.w3.org/2000/svg">
  <g transform="matrix(1.0, 0.0, 0.0, 1.0, 38.65, 49.75)">
    <use height="18.15" transform="matrix(1.0, 0.0, 0.0, 1.0, -9.85, -4.45)" width="28.95" xlink:href="#shape0"/>
    <use height="39.6" transform="matrix(0.5, 0.0, 0.0, 0.5, -5.15, -4.2)" width="32.7" xlink:href="#text0"/>
  </g>
  <defs>
    <g id="shape0" transform="matrix(1.0, 0.0, 0.0, 1.0, 9.85, 4.45)">
      <path d="M-9.35 5.05 Q-7.9 0.2 -4.05 -2.5 -0.25 -5.2 3.55 -2.85 7.3 -0.55 8.3 4.4 6.0 6.7 0.8 6.9 -4.4 7.05 -9.35 5.05" fill="#ffffff" fill-rule="evenodd" stroke="none"/>
      <path d="M8.3 4.4 Q12.65 6.55 16.5 6.0 20.25 5.45 17.35 8.9 15.35 11.2 12.95 12.3 L10.45 13.1 Q9.7 12.9 9.25 13.1 L6.8 12.5 Q4.75 12.0 3.75 9.9 2.7 7.8 -0.25 8.25 -3.25 8.65 -8.0 6.25 L-8.8 5.6 -9.35 5.05 Q-4.4 7.05 0.8 6.9 6.0 6.7 8.3 4.4" fill="#990000" fill-rule="evenodd" stroke="none"/>
      <path d="M9.25 13.1 L9.3 13.2 8.25 13.15 Q3.3 12.85 -1.35 10.6 -4.95 8.85 -8.0 6.25 -3.25 8.65 -0.25 8.25 2.7 7.8 3.75 9.9 4.75 12.0 6.8 12.5 L9.25 13.1" fill="#ff0000" fill-rule="evenodd" stroke="none"/>
      <path d="M8.3 4.4 Q12.65 6.55 16.5 6.0 20.25 5.45 17.35 8.9 15.35 11.2 12.95 12.3 L10.45 13.1 Q9.7 12.9 9.25 13.1 L6.8 12.5 Q4.75 12.0 3.75 9.9 2.7 7.8 -0.25 8.25 -3.25 8.65 -8.0 6.25 L-8.8 5.6 -9.35 5.05 Q-7.9 0.2 -4.05 -2.5 -0.25 -5.2 3.55 -2.85 7.3 -0.55 8.3 4.4 M9.3 13.2 L8.25 13.15 Q3.3 12.85 -1.35 10.6 -4.95 8.85 -8.0 6.25" fill="none" stroke="#650101" stroke-linecap="round" stroke-linejoin="round" stroke-width="1.0"/>
    </g>
  </defs>
</svg>
